icons/goal-16.svg

<svg xmlns="http://www.w3.org/2000/svg" width="16" height="16" viewBox="0 0 16 16"><path d="M13.637 2.363h-.001l1.676.335c.09.018.164.084.19.173a.25.25 0 01-.062.249l-1.373 1.374a.876.876 0 01-.619.256H12.31L9.45 7.611A1.5 1.5 0 116.5 8a1.501 1.501 0 011.889-1.449l2.861-2.862V2.552c0-.232.092-.455.256-.619L12.88.559a.25.25 0 01.249-.062c.089.026.155.1.173.19z"/><path d="M2 8a6 6 0 1011.769-1.656.751.751 0 111.442-.413 7.502 7.502 0 01-12.513 7.371A7.501 7.501 0 0110.069.789a.75.75 0 01-.413 1.442A6.001 6.001 0 002 8z"/><path d="M5 8a3.002 3.002 0 004.699 2.476 3 3 0 001.28-2.827.748.748 0 011.045-.782.75.75 0 01.445.61A4.5 4.5 0 118.516 3.53a.75.75 0 11-.17 1.49A3 3 0 005 8z"/></svg>

<svg xmlns="http://www.w3.org/2000/svg" width="16" height="16" viewBox="0 0 16 16">
  <defs/>
  <path d="M13.637,2.363 L13.636,2.363 L15.312,2.698 C15.402,2.716 15.476,2.782 15.502,2.871 C15.529,2.959 15.505,3.055 15.44,3.12 L14.067,4.494 C13.903,4.658 13.68,4.75 13.448,4.75 L12.31,4.75 L9.45,7.611 C9.599,8.173 9.409,8.771 8.963,9.145 C8.517,9.519 7.895,9.601 7.368,9.355 C6.84,9.11 6.502,8.582 6.5,8 C6.501,7.534 6.718,7.094 7.088,6.811 C7.458,6.527 7.939,6.431 8.389,6.551 L11.25,3.689 L11.25,2.552 C11.25,2.32 11.342,2.097 11.506,1.933 L12.88,0.559 C12.945,0.494 13.041,0.47 13.129,0.497 C13.218,0.523 13.284,0.597 13.302,0.687 Z"/>
  <path d="M2,8 C2.003,10.343 3.369,12.47 5.499,13.447 C7.628,14.423 10.132,14.071 11.909,12.545 C13.687,11.018 14.413,8.597 13.769,6.344 C13.694,6.086 13.762,5.807 13.949,5.613 C14.135,5.42 14.411,5.341 14.672,5.406 C14.933,5.472 15.138,5.672 15.211,5.931 C16.153,9.217 14.754,12.725 11.808,14.461 C8.862,16.196 5.116,15.719 2.698,13.302 C0.281,10.884 -0.196,7.138 1.539,4.192 C3.275,1.246 6.783,-0.153 10.069,0.789 C10.465,0.905 10.693,1.319 10.58,1.715 C10.466,2.112 10.053,2.342 9.656,2.231 C7.845,1.711 5.894,2.072 4.389,3.206 C2.884,4.34 1.999,6.115 2,8 Z"/>
  <path d="M5,8 C4.999,9.115 5.616,10.138 6.602,10.658 C7.588,11.177 8.781,11.107 9.699,10.476 C10.618,9.844 11.111,8.756 10.979,7.649 C10.945,7.381 11.057,7.116 11.274,6.954 C11.49,6.792 11.776,6.759 12.024,6.867 C12.271,6.975 12.441,7.208 12.469,7.477 C12.692,9.379 11.686,11.214 9.962,12.05 C8.239,12.885 6.175,12.538 4.82,11.185 C3.465,9.831 3.114,7.768 3.947,6.044 C4.78,4.319 6.613,3.31 8.516,3.53 C8.787,3.555 9.022,3.725 9.132,3.973 C9.242,4.221 9.21,4.51 9.046,4.727 C8.883,4.944 8.615,5.056 8.346,5.02 C7.496,4.921 6.644,5.19 6.005,5.76 C5.366,6.329 5,7.144 5,8 Z"/>
</svg>
